Newaita-dark/emblems/48/emblem-documents.svg

<svg height="48" viewBox="0 0 48 48" width="48" xmlns="http://www.w3.org/2000/svg"><g fill="#fafafa"><path d="m-93.469939-423.334574c10.99895 0 19.914765 8.915816 19.914765 19.914765v298.846462c0 10.99895-8.915815 19.914765-19.914765 19.914765s-19.914765-8.915815-19.914765-19.914765v-298.846462c0-10.998949 8.915815-19.914765 19.914765-19.914765zm0 0" stroke="#424242" stroke-linecap="round" stroke-linejoin="round" stroke-width="82" transform="matrix(0 .093759 -.093759 0 0 20.158175)"/><path d="m39.691406 11.402344c0 1.035156-.839844 1.871094-1.875 1.871094h-28.003906c-1.035156 0-1.875-.835938-1.875-1.871094s.839844-1.875 1.875-1.875h28.003906c1.035156 0 1.875.839844 1.875 1.875zm0 0"/><path d="m41.767147-423.334574c10.998949 0 19.914765 8.915816 19.914765 19.914765v298.846462c0 10.99895-8.915816 19.914765-19.914765 19.914765-10.99895 0-19.914765-8.915815-19.914765-19.914765v-298.846462c0-10.998949 8.915815-19.914765 19.914765-19.914765zm0 0" stroke="#424242" stroke-linecap="round" stroke-linejoin="round" stroke-width="82" transform="matrix(0 .093759 -.093759 0 0 20.158175)"/><path d="m39.691406 24.078125c0 1.035156-.839844 1.875-1.875 1.875h-28.003906c-1.035156 0-1.875-.839844-1.875-1.875s.839844-1.871094 1.875-1.871094h28.003906c1.035156 0 1.875.835938 1.875 1.871094zm0 0"/><path d="m179.337343-423.334574c10.998949 0 19.914765 8.915816 19.914765 19.914765v298.846462c0 10.99895-8.915816 19.914765-19.914765 19.914765-10.99895 0-19.914765-8.915815-19.914765-19.914765v-298.846462c0-10.998949 8.915815-19.914765 19.914765-19.914765zm0 0" stroke="#424242" stroke-linecap="round" stroke-linejoin="round" stroke-width="82" transform="matrix(0 .093759 -.093759 0 0 20.158175)"/><path d="m39.691406 36.980469c0 1.035156-.839844 1.875-1.875 1.875h-28.003906c-1.035156 0-1.875-.839844-1.875-1.875 0-1.035157.839844-1.875 1.875-1.875h28.003906c1.035156 0 1.875.839843 1.875 1.875zm0 0"/></g></svg>

<?xml version="1.0" encoding="UTF-8"?>
<svg xmlns="http://www.w3.org/2000/svg" xmlns:xlink="http://www.w3.org/1999/xlink" width="48px" height="48px" viewBox="0 0 48 48" version="1.1">
<g id="surface1">
<path style="fill-rule:nonzero;fill:rgb(98.039216%,98.039216%,98.039216%);fill-opacity:1;stroke-width:82;stroke-linecap:round;stroke-linejoin:round;stroke:rgb(25.882354%,25.882354%,25.882354%);stroke-opacity:1;stroke-miterlimit:4;" d="M -93.469939 -423.334574 C -82.470989 -423.334574 -73.555174 -414.418758 -73.555174 -403.419809 L -73.555174 -104.573347 C -73.555174 -93.574397 -82.470989 -84.658582 -93.469939 -84.658582 C -104.468889 -84.658582 -113.384704 -93.574397 -113.384704 -104.573347 L -113.384704 -403.419809 C -113.384704 -414.418758 -104.468889 -423.334574 -93.469939 -423.334574 Z M -93.469939 -423.334574 " transform="matrix(0.000000000000000006,0.093759,-0.093759,0.000000000000000006,0,20.158175)"/>
<path style=" stroke:none;fill-rule:nonzero;fill:rgb(98.039216%,98.039216%,98.039216%);fill-opacity:1;" d="M 39.691406 11.402344 C 39.691406 12.4375 38.851562 13.273438 37.816406 13.273438 L 9.8125 13.273438 C 8.777344 13.273438 7.9375 12.4375 7.9375 11.402344 C 7.9375 10.367188 8.777344 9.527344 9.8125 9.527344 L 37.816406 9.527344 C 38.851562 9.527344 39.691406 10.367188 39.691406 11.402344 Z M 39.691406 11.402344 "/>
<path style="fill-rule:nonzero;fill:rgb(98.039216%,98.039216%,98.039216%);fill-opacity:1;stroke-width:82;stroke-linecap:round;stroke-linejoin:round;stroke:rgb(25.882354%,25.882354%,25.882354%);stroke-opacity:1;stroke-miterlimit:4;" d="M 41.767147 -423.334574 C 52.766096 -423.334574 61.681912 -414.418758 61.681912 -403.419809 L 61.681912 -104.573347 C 61.681912 -93.574397 52.766096 -84.658582 41.767147 -84.658582 C 30.768197 -84.658582 21.852382 -93.574397 21.852382 -104.573347 L 21.852382 -403.419809 C 21.852382 -414.418758 30.768197 -423.334574 41.767147 -423.334574 Z M 41.767147 -423.334574 " transform="matrix(0.000000000000000006,0.093759,-0.093759,0.000000000000000006,0,20.158175)"/>
<path style=" stroke:none;fill-rule:nonzero;fill:rgb(98.039216%,98.039216%,98.039216%);fill-opacity:1;" d="M 39.691406 24.078125 C 39.691406 25.113281 38.851562 25.953125 37.816406 25.953125 L 9.8125 25.953125 C 8.777344 25.953125 7.9375 25.113281 7.9375 24.078125 C 7.9375 23.042969 8.777344 22.207031 9.8125 22.207031 L 37.816406 22.207031 C 38.851562 22.207031 39.691406 23.042969 39.691406 24.078125 Z M 39.691406 24.078125 "/>
<path style="fill-rule:nonzero;fill:rgb(98.039216%,98.039216%,98.039216%);fill-opacity:1;stroke-width:82;stroke-linecap:round;stroke-linejoin:round;stroke:rgb(25.882354%,25.882354%,25.882354%);stroke-opacity:1;stroke-miterlimit:4;" d="M 179.337343 -423.334574 C 190.336292 -423.334574 199.252108 -414.418758 199.252108 -403.419809 L 199.252108 -104.573347 C 199.252108 -93.574397 190.336292 -84.658582 179.337343 -84.658582 C 168.338393 -84.658582 159.422578 -93.574397 159.422578 -104.573347 L 159.422578 -403.419809 C 159.422578 -414.418758 168.338393 -423.334574 179.337343 -423.334574 Z M 179.337343 -423.334574 " transform="matrix(0.000000000000000006,0.093759,-0.093759,0.000000000000000006,0,20.158175)"/>
<path style=" stroke:none;fill-rule:nonzero;fill:rgb(98.039216%,98.039216%,98.039216%);fill-opacity:1;" d="M 39.691406 36.980469 C 39.691406 38.015625 38.851562 38.855469 37.816406 38.855469 L 9.8125 38.855469 C 8.777344 38.855469 7.9375 38.015625 7.9375 36.980469 C 7.9375 35.945312 8.777344 35.105469 9.8125 35.105469 L 37.816406 35.105469 C 38.851562 35.105469 39.691406 35.945312 39.691406 36.980469 Z M 39.691406 36.980469 "/>
</g>
</svg>
